icons/anytimeplayer.svg

<svg width="32" height="32" viewBox="0 0 32 32" fill="none" xmlns="http://www.w3.org/2000/svg">
<g clip-path="url(#clip0_29_81)">
<path d="M3.36627 28.6337C0.910867 26.1783 0 22.1783 0 16C0 9.82167 0.910867 5.82167 3.36627 3.36627C5.82167 0.910867 9.82167 0 16 0C22.1783 0 26.1783 0.910867 28.6337 3.36627C31.0891 5.82167 32 9.82167 32 16C32 22.1783 31.0891 26.1783 28.6337 28.6337C26.1783 31.0891 22.1783 32 16 32C9.82167 32 5.82167 31.0891 3.36627 28.6337Z" fill="#FF9900"/>
<path fill-rule="evenodd" clip-rule="evenodd" d="M9.40452 6.70965C14.4968 3.09371 21.5779 4.32184 25.2205 9.45276C26.9697 11.9167 27.6758 14.9696 27.1836 17.9397C26.6913 20.9098 25.0409 23.5539 22.5955 25.2904C17.5031 28.9063 10.4221 27.6782 6.77952 22.5473C3.13694 17.4163 4.31219 10.3256 9.40452 6.70965V6.70965Z" stroke="white" stroke-width="1.5" stroke-miterlimit="10" stroke-linejoin="round"/>
<path fill-rule="evenodd" clip-rule="evenodd" d="M11.3939 7.54626L25.5769 16.001L11.3939 24.4557V7.54626Z" fill="white" stroke="white" stroke-width="1.5" stroke-miterlimit="10" stroke-linejoin="round"/>
<path d="M17.9422 22.0116C17.7677 22.0116 17.6229 21.954 17.5076 21.8388C17.3924 21.7236 17.3348 21.5787 17.3348 21.4042V15.9706C17.3426 15.343 17.4894 14.7789 17.7752 14.2782C18.0617 13.7776 18.451 13.3824 18.9432 13.0927C19.436 12.803 19.9923 12.6581 20.6121 12.6581C21.2397 12.6581 21.7996 12.803 22.2918 13.0927C22.7846 13.3824 23.1759 13.7776 23.4656 14.2782C23.7553 14.7789 23.9002 15.343 23.9002 15.9706C23.9002 16.5982 23.7671 17.1604 23.5008 17.6571C23.2352 18.1532 22.8719 18.5465 22.4109 18.8368C21.9507 19.1265 21.4305 19.2714 20.8504 19.2714C20.3816 19.2714 19.9507 19.1741 19.5574 18.9794C19.1642 18.7847 18.8286 18.5204 18.5506 18.1864V21.4042C18.5506 21.5787 18.4949 21.7236 18.3836 21.8388C18.2723 21.954 18.1251 22.0116 17.9422 22.0116ZM20.6121 18.1991C21.0171 18.1991 21.3784 18.1018 21.6961 17.9071C22.0138 17.7125 22.2661 17.4465 22.4529 17.1093C22.6398 16.7714 22.7332 16.3918 22.7332 15.9706C22.7332 15.5416 22.6398 15.1584 22.4529 14.8212C22.2661 14.4833 22.0138 14.217 21.6961 14.0224C21.3784 13.8277 21.0171 13.7304 20.6121 13.7304C20.215 13.7304 19.8553 13.8277 19.533 14.0224C19.2114 14.217 18.9591 14.4833 18.7762 14.8212C18.5939 15.1584 18.5027 15.5416 18.5027 15.9706C18.5027 16.3918 18.5939 16.7714 18.7762 17.1093C18.9591 17.4465 19.2114 17.7125 19.533 17.9071C19.8553 18.1018 20.215 18.1991 20.6121 18.1991Z" fill="#FF9900"/>
<path d="M13.124 19.0018C12.5439 19.0018 12.0234 18.8569 11.5625 18.5672C11.1022 18.2769 10.7389 17.8836 10.4726 17.3875C10.207 16.8908 10.0742 16.3286 10.0742 15.701C10.0742 15.0734 10.219 14.5093 10.5088 14.0086C10.7985 13.508 11.1917 13.1128 11.6884 12.8231C12.1852 12.5334 12.7431 12.3885 13.3623 12.3885C13.9821 12.3885 14.5381 12.5334 15.0302 12.8231C15.5231 13.1128 15.9144 13.508 16.2041 14.0086C16.4944 14.5093 16.6396 15.0734 16.6396 15.701H16.1748C16.1748 16.3286 16.0416 16.8908 15.7754 17.3875C15.5091 17.8836 15.1455 18.2769 14.6845 18.5672C14.2243 18.8569 13.7041 19.0018 13.124 19.0018ZM13.3623 17.9295C13.7679 17.9295 14.1295 17.8322 14.4472 17.6375C14.7649 17.4429 15.0149 17.1769 15.1972 16.8397C15.3802 16.5018 15.4716 16.1222 15.4716 15.701C15.4716 15.272 15.3802 14.8888 15.1972 14.5516C15.0149 14.2137 14.7649 13.9474 14.4472 13.7528C14.1295 13.5581 13.7679 13.4608 13.3623 13.4608C12.9651 13.4608 12.6058 13.5581 12.2841 13.7528C11.9625 13.9474 11.7083 14.2137 11.5215 14.5516C11.3346 14.8888 11.2412 15.272 11.2412 15.701C11.2412 16.1222 11.3346 16.5018 11.5215 16.8397C11.7083 17.1769 11.9625 17.4429 12.2841 17.6375C12.6058 17.8322 12.9651 17.9295 13.3623 17.9295ZM16.0322 18.9657C15.8571 18.9657 15.7119 18.9081 15.5966 18.7928C15.4814 18.6776 15.4238 18.5327 15.4238 18.3582V16.535L15.6504 15.2723L16.6396 15.701V18.3582C16.6396 18.5327 16.582 18.6776 16.4668 18.7928C16.3515 18.9081 16.2067 18.9657 16.0322 18.9657Z" fill="#FF9900"/>
</g>
<defs>
<clipPath id="clip0_29_81">
<rect width="32" height="32" fill="white"/>
</clipPath>
</defs>
</svg>

<svg xmlns="http://www.w3.org/2000/svg" width="32" height="32" fill="none" viewBox="0 0 32 32">
  <g clip-path="url(#a)">
    <path fill="#F90" d="M3.366 28.634C.911 26.178 0 22.178 0 16S.91 5.822 3.366 3.366C5.822.911 9.822 0 16 0s10.178.91 12.634 3.366C31.089 5.822 32 9.822 32 16s-.91 10.178-3.366 12.634C26.178 31.089 22.178 32 16 32s-10.178-.91-12.634-3.366Z"/>
    <path stroke="#fff" stroke-linejoin="round" stroke-miterlimit="10" stroke-width="1.5" d="M9.405 6.71c5.092-3.616 12.173-2.388 15.816 2.743a11.438 11.438 0 0 1 1.963 8.487 11.268 11.268 0 0 1-4.588 7.35c-5.093 3.616-12.174 2.388-15.816-2.743-3.643-5.13-2.468-12.221 2.625-15.837Z" clip-rule="evenodd"/>
    <path fill="#fff" fill-rule="evenodd" stroke="#fff" stroke-linejoin="round" stroke-miterlimit="10" stroke-width="1.5" d="m11.394 7.546 14.183 8.455-14.183 8.455V7.546Z" clip-rule="evenodd"/>
    <path fill="#F90" d="M17.942 22.012a.59.59 0 0 1-.607-.608v-5.433a3.441 3.441 0 0 1 .44-1.693 3.19 3.19 0 0 1 1.168-1.185 3.231 3.231 0 0 1 1.67-.435c.627 0 1.187.145 1.679.435.493.29.884.685 1.174 1.185.29.5.434 1.065.434 1.693 0 .627-.133 1.19-.4 1.686a3.09 3.09 0 0 1-1.089 1.18c-.46.29-.98.434-1.56.434-.47 0-.9-.097-1.293-.292a3.063 3.063 0 0 1-1.007-.793v3.218a.6.6 0 0 1-.167.435.586.586 0 0 1-.442.173Zm2.67-3.813a2.03 2.03 0 0 0 1.084-.292c.318-.195.57-.46.757-.798a2.31 2.31 0 0 0 .28-1.138c0-.43-.093-.813-.28-1.15a2.122 2.122 0 0 0-.757-.799 2.032 2.032 0 0 0-1.084-.292 2.046 2.046 0 0 0-1.836 1.091 2.38 2.38 0 0 0-.273 1.15c0 .42.09.8.273 1.138a2.046 2.046 0 0 0 1.836 1.09Zm-7.488.803c-.58 0-1.1-.145-1.562-.435a3.1 3.1 0 0 1-1.09-1.18c-.265-.496-.398-1.058-.398-1.686 0-.628.145-1.192.435-1.692.29-.501.683-.896 1.18-1.186a3.26 3.26 0 0 1 1.673-.434c.62 0 1.176.144 1.668.434.493.29.884.685 1.174 1.186.29.5.436 1.064.436 1.692h-.465c0 .628-.133 1.19-.4 1.686-.266.497-.63.89-1.09 1.18-.46.29-.98.435-1.561.435Zm.238-1.072a2.03 2.03 0 0 0 1.835-1.09c.183-.338.275-.718.275-1.139 0-.429-.092-.812-.275-1.15a2.07 2.07 0 0 0-.75-.798 2.034 2.034 0 0 0-1.085-.292 2.04 2.04 0 0 0-1.078.292c-.321.194-.576.46-.763.799-.186.337-.28.72-.28 1.149 0 .421.094.8.28 1.139.187.337.442.603.763.797a2.04 2.04 0 0 0 1.078.293Zm2.67 1.036a.59.59 0 0 1-.608-.608v-1.823l.226-1.263.99.429v2.657a.59.59 0 0 1-.608.608Z"/>
  </g>
  <defs>
    <clipPath id="a">
      <path fill="#fff" d="M0 0h32v32H0z"/>
    </clipPath>
  </defs>
</svg>
